X: 1
T: String Quartet in E\b Major opus 33 no 2 mvt 1
C: Franz Joseph Haydn
%%abc-version 2.0
%%abcx-abcm2ps-target-version 5.9.1 (29 Sep 2008)
%%abc-creator hum2abc beta
%%abcx-conversion-date 2021/02/14 14:38:21
%%abc-copyright Copyright (c) 1994, 2000 Center for Computer Assisted Research in the Humanities
%%abc-edited-by Frances Bennion
%%abcx-initial-encoding-date 1997/04/15
%%gracespace 0 6 6
%%humdrum-veritas 127934532
%%humdrum-veritas-data 1012510444
%%linebreak <none>
%%barnumbers 0
L: 1/8
M: 4/4
N: Derived from op33n2-01.krn
Q: "Allegro moderato, cantabile"
%%staves [1 2 3 4]
V: 1
V: 2
V: 3 clef=alto
V: 4 clef=bass
K: Eb
[V:1]z7 B,/E/ [I:setbarnb1]|
[V:2]z7 z |
[V:3]z7 z |
[V:4]z7 z |
[V:1]E4 B3 A/F/ |
[V:2]zE EE zD DD |
[V:3]zG, G,G, zA, A,A, |
[V:4]E,2 z2 B,,2 z2 |
[V:1]EG Be/B/ B3 =B |
[V:2]zE EE z_D DD |
[V:3]zG, G,G, zG, G,G, |
[V:4]E,,2 z2 E,2 z2 |
[V:1]c4 A3 F/D/ |
[V:2]zC CC zD DD |
[V:3]zA, A,A, zF, F,F, |
[V:4]A,,2 z2 B,,2 z2 |
[V:1]EG BA/F/ E2 zB,/E/ |
[V:2]Ez Dz E2 z2 |
[V:3]G,z A,z G,2 z2 |
[V:4]G,z B,,z E,,2 z2 |
[V:1]EB,/F/ FB,/G/ Gz2 B,/G/ |
[V:2](3:2:2z4 z/^f/g/g z|
[V:3](3:2:2z4 z/d/e/e z|
[V:4]E,z D,z E,2 z2 |
[V:1]GB,/A/ AB,/B/ Bz2 B/b/ |
[V:2](3:2:2z4 z/=a/b/b z|
[V:3](3:2:2z4 z/^F/G/G z|
[V:4]E,z F,z G,z3 |
[V:1]b/a/B/a/ a/g/B/b/ b/a/B/a/ a/g/c/c'/ |
[V:2]Bz Bz Bz Bz |
[V:3]Fz Gz Fz Ez |
[V:4]D,z E,z D,z E,z |
[V:1]c'>g ag/f/ e2 dB,/E/ |
[V:2]c2 cB/A/ G2 Fz |
[V:3]F2 A,2 B,2 z2 |
[V:4]A,,4 B,,2 z2 |
[V:1]E4 B3 A/F/ |
[V:2]zE EE zD DD |
[V:3]zG, G,G, zA, A,A, |
[V:4]E,2 z2 B,,2 z2 |
[V:1]EG Be/B/ B3 =B |
[V:2]zE EE z_D DD |
[V:3]zG, G,G, zG, G,G, |
[V:4]E,,2 z2 E,2 z2 |
[V:1]c4 A3 F/D/ |
[V:2]zC CC zD DD |
[V:3]zA, A,A, zF, F,F, |
[V:4]A,,2 z2 B,,2 z2 |
[V:1]EG BA/F/ E2 zB/g/ |
[V:2]Ez Dz E2 z2 |
[V:3]G,z A,z G,2 z2 |
[V:4]E,z B,,z E,,G,, B,,A,,/F,,/ |
[V:1]g4 a3 =B |
[V:2]B4 =Bd fd/B/ |
[V:3]EG BG/E/ D4 |
[V:4]E,,2 z2 D,F, A,F,/D,/ |
[V:1]ce ge/c/ B2 =A2 |
[V:2]c4 CE _GE/C/ |
[V:3]G4 E4 |
[V:4]E,4 F,4 |
[V:1]Bd fd/=B/ ce ge/c/ |
[V:2]D4 E4 |
[V:3]D4 =A,4 |
[V:4]F,8- |
[V:1]df bf/d/ =eg bg/e/ |
[V:2]D4 B,4 |
[V:3]B,4 G,4 |
[V:4]F,8- |
[V:1]fc/=A/ f=e/c/ fc/A/ fe/c/ |
[V:2]C2 B,2 C2 B,2 |
[V:3]=A,2 G,2 A,2 G,2 |
[V:4]F,8- |
[V:1]fc/=A/ fd/B/ fe/c/ fd/B/ |
[V:2]C2 D2 E2 D2 |
[V:3]=A,2 B,2 C2 B,2 |
[V:4]F,8 |
[V:1]F3 ^F/G/ G3 e/c/ |
[V:2]C2 z3 =B,/C/ C2- |
[V:3]=A,2 z6 |
[V:4]F,3 D,/E,/ E,4 |
[V:1]B2 =AB c>d eF/B/ |
[V:2]CD/E/ ED2 <G2 E |
[V:3]z=B,/C/ C_B,2 <E2 =A, |
[V:4]F,2 >G,2 E,3 F, |
[V:1]BB Bc/=A/ Bd de/c/ |
[V:2]DD DE/C/ DB Bc/=A/ |
[V:3]B,2 z2 FF FF |
[V:4]B,,B,, B,,B,, B,,B,, B,,B,, |
[V:1]df fg/e/ f[bBD] [bBD][bBD] |
[V:2]Bd de/c/ d[Bf] [fB][fB] |
[V:3]FB, B,B, B,[BF] [BF][BF] |
[V:4]B,,B,, B,,B,, B,,[B,D,] [B,D,][B,D,] |
[V:1]d'>c' b/a/g/f/ f=e/z/ gf/z/ |
[V:2][f2B2] z2 >B2 zc |
[V:3][B2D2] z2 >B2 z=A |
[V:4][B,,2B,2D,2] z2 >G,2 z=A, |
[V:1]c'e/z/ ed/z/ ^fg/z/ =ab/z/ |
[V:2]z=A zB zB z_d |
[V:3]zc zB zG zG |
[V:4]zF, zG, zE, z=E, |
[V:1](3F/B/=A/(3c/B/d/ (3c/e/d/(3f/e/g/ (3f/b/=a/(3g/f/e/ (3d/c/B/(3A/G/F/ |
[V:2]d4 z4 |
[V:3]B4 z4 |
[V:4]F,4 z4 |
[V:1](3=E/E/E/(3E/E/E/ (3_E/E/E/(3E/E/E/ (3D/F/B/(3d/f/=a/ b^f |
[V:2](3_D/D/D/(3D/D/D/ (3C/C/C/(3C/C/C/ B,2 zB- |
[V:3](3B,/B,/B,/(3B,/B,/B,/ (3F,/F,/F,/(3F,/F,/F,/ F,2 zB |
[V:4](3G,/G,/G,/(3G,/G,/G,/ (3=A,/A,/A,/(3A,/A,/A,/ B,2 zD, |
[V:1]g/z/=b c'/z/e'/c'/ (3_b/d'/f'/(3f'/f'/f'/ (3f'/d'/b/(3f'/d'/b/ |
[V:2]B2 <z2 BB BB |
[V:3]G2 <z2 DD DD |
[V:4]E,2 <z2 F,F, F,F, |
[V:1]f2 c'2 b4- |
[V:2]BB =AA2 <B2 B/e/ |
[V:3]CC EE D2 z2 |
[V:4]F,F, F,F, B,,2 z2 |
[V:1]b7 f/d/ |
[V:2]eB/d/ dB/g/ gB/f/ fB |
[V:3]Gz Fz Ez Dz |
[V:4]z8 |
[V:1]ge/c/ ec/=A/ B4- |
[V:2]Bz =Az B2 z2 |
[V:3]Ez Fz2 <B,2 B,/E/ |
[V:4]z7 G,,/G,/ |
[V:1]B7 =B/c/ |
[V:2]z7 A/G/ |
[V:3]EB,/D/ DB,/G/ GB,/F/ FF/E/ |
[V:4]G,F,,/F,/ F,E,,/E,/ E,D,,/D,/ D,D,/E,/ |
[V:1]cc/e/ eF/B/ B2 z2 |
[V:2]Gz [EC]z [DB,]z3 |
[V:3]Ez =A,z B,2 z2 |
[V:4]E,z F,z B,,2 zF,/B,/ |
[V:1]z7 B/e/ |
[V:2]Bz =Az _Az3 |
[V:3]Dz Ez Fz3 |
[V:4]B,F,/C/ CF,/D/ Dz3 |
[V:1]eB/f/ fB/g/ gz2 e/a/ |
[V:2]Gz Fz Ez3 |
[V:3]Bz Bz Bz3 |
[V:4]Ez Dz _Dz3 |
[V:1]a4 e'3 _d'/b/ |
[V:2]zc cc z_d dd |
[V:3]zE EE zE EE,/A,/ |
[V:4]A,2 z2 E,2 z2 |
[V:1]c'4 bB/_d/ bb |
[V:2]zc/e/ aa a2 g2- |
[V:3]A,4 E3 =E/C/ |
[V:4]A,,2 (3:2:2z4 z/C,/F,/|
[V:1]a4 g3 c/f/ |
[V:2]gA/c/ ff f2 =e2 |
[V:3]FC/F/ AF CC/G/ BB |
[V:4]F,4 C3 B,/G,/ |
[V:1]f4 c'3 b/g/ |
[V:2]fC/F/ AF2 <C2 c- |
[V:3]A4 G4 |
[V:4]A,2 F4 =E2 |
[V:1]a2 =a2 b3 _a/f/ |
[V:2]cg2 e/c/ _d2 =d2 |
[V:3]FA,/C/ FF B,_D/F/ BB |
[V:4]F2 (3:2:2z4 z/B,,/E,/|
[V:1]g2 (3:2:2z4 z/B/e/|
[V:2]eG/B/ ee e2 dB |
[V:3]E2 G2 FB,/F/ AA |
[V:4]E,4 B,3 A,/F,/ |
[V:1]e4 b3 a/f/ |
[V:2]eG GG zd dd |
[V:3]GB, B,B, zA AA |
[V:4]G,2 z2 B,,2 z2 |
[V:1]eg be'/b/ b3 _d'/c'/ |
[V:2]e2 z3 ^F/G/ Gz |
[V:3]G2 z3 D/E/ Ez |
[V:4]E,2 z6 |
[V:1]c'3 _c'/b/ b3 b/=a/ |
[V:2]zG/A/ Az2 F/G/ Gz |
[V:3]z=E/F/ Fz2 D/_E/ Ez |
[V:4]z8 |
[V:1]=aa/_a/ aa/g/ gB/_g/ g2- |
[V:2]Ez Fz Gz2 B/_c/ |
[V:3]Cz Dz Ez3 |
[V:4]z8 |
[V:1]g3 _g/a/ a4- |
[V:2]_c6 zA/B/ |
[V:3]zD/E/ E3 C/_D/ D2- |
[V:4]z3 E,/F,/ F,3 F,/_G,/ |
[V:1]af/_g/ g3 e/f/ f=g |
[V:2]B3 c/_d/ d4- |
[V:3]D2 >_G,2 A,2 z_D |
[V:4]_G,2 >E,2 _D,2 zB,,/A,,/ |
[V:1](3:2:2a4- a/f/_g/g =a|
[V:2]dB/_c/ cd e4- |
[V:3]E2 zA, B,2 zE |
[V:4]A,,2 zF, E,2 zC,/B,,/ |
[V:1](3:2:2b4- b/g/a/a =b|
[V:2]ec/_d/ d=e f4- |
[V:3]F2 zB, C2 zF |
[V:4]B,,2 zG, F,2 z_D,/C,/ |
[V:1]c'3 =e/_d'/ d'f/c'/ c'_d/b/ |
[V:2]fd/=e/ ez ez fz |
[V:3]G2 z2 Gz Fz |
[V:4]C,2 z2 B,z A,z |
[V:1]b2 z2 az =ez |
[V:2]_d2 z2 cz Gz |
[V:3]=E2 z6 |
[V:4]G,2 zC,/F,/ F,C,/G,/ G,C,/A,/ |
[V:1]f8 |
[V:2]zC/F/ Fz2 C/F/ Fz |
[V:3]z3 A,/C/ Cz2 A,/C/ |
[V:4]A,2 zF,/A,/ A,2 zF,/A,/ |
[V:1]^f8 |
[V:2]zC/E/ E3 C/E/ E2- |
[V:3]Cz2 C,/C/ Cz2 C,/C/ |
[V:4]A,2 zA,,/A,/ A,2 zA,/A,,/ |
[V:1]g4 =a4 |
[V:2]EC/E/ E3 C/E/ E2 |
[V:3]C3 C,/C/ C3 C,/C/ |
[V:4]G,,3 G,/G,,/ ^F,,3 F,,/^F,/ |
[V:1]gd/=B/ ^fe/c/ gd/B/ fe/c/ |
[V:2]D2 E2 D2 E2 |
[V:3]=B,2 C2 B,2 C2 |
[V:4]G,8- |
[V:1]gd/=B/ ge/c/ gf/d/ ge/c/ |
[V:2]D2 E2 F2 E2 |
[V:3]=B,2 C2 D2 C2 |
[V:4]G,8 |
[V:1]gd/=B/ ge/c/ (3a/g/f/(3e/d/c/ (3B/A/G/(3F/E/D/ |
[V:2]D2 C2 =B,2 z2 |
[V:3]=B,2 C2 D2 z2 |
[V:4]G,2 E,2 F,2 z2 |
[V:1](3C/=B,/A,/(3G,/B,/D/ (3F/E/D/(3A/G/F/ (3E/G/c/(3A/F/D/ (3G/E/C/(3F/D/B,/ |
[V:2]z2 >D2 EA G=B |
[V:3]z2 >=B,2 CC ED |
[V:4]z2 >=B,,2 C,F, G,G,, |
[V:1]CA G=B,2 <z2 G,/C/ |
[V:2]cA GF z4 |
[V:3]CF ED z4 |
[V:4]E,F, G,G,, z4 |
[V:1]C4 G3 F/D/ |
[V:2]zE EE z=B, B,B, |
[V:3]zG, G,G, zF, F,F, |
[V:4]C,2 z2 G,,2 z2 |
[V:1]CE Gc/G/ G3 c/F/ |
[V:2]C2 z2 >=E2 Ez |
[V:3]E,2 z2 >C2 Cz |
[V:4]C,,2 z2 >B,2 B,z |
[V:1]F3 =B/F/ F3 B/F/ |
[V:2]zF Fz2 D Dz |
[V:3]zC Cz2 _C Cz |
[V:4]zA, A,z2 A, A,z |
[V:1]F=B/F/ FB/F/ F2 zB,/E/ |
[V:2]Dz Dz D2 z2 |
[V:3]_Cz Cz B,2 z2 |
[V:4]A,z A,z A,2 z2 |
[V:1]E4 B3 A/F/ |
[V:2]zE EE zD DD |
[V:3]zG, G,G, zA, A,A, |
[V:4]E,2 z2 B,,2 z2 |
[V:1]EG Be/B/ B3 =B |
[V:2]zE EE z_D DD |
[V:3]zG, G,G, zG, G,G, |
[V:4]E,,2 z2 E,2 z2 |
[V:1]c4 A3 F/D/ |
[V:2]zC CC zD DD |
[V:3]zA, A,A, zF, F,F, |
[V:4]A,,2 z2 B,,2 z2 |
[V:1]EG BA/F/ E2 zB,/E/ |
[V:2]Ez Dz E2 z2 |
[V:3]G,z A,z G,2 z2 |
[V:4]E,z B,,z E,,2 z2 |
[V:1]EB,/F/ FB,/G/ G2 zB,/G/ |
[V:2](3:2:2z4 z/^f/g/g z|
[V:3](3:2:2z4 z/d/e/e z|
[V:4]E,z D,z E,2 z2 |
[V:1]GB,/A/ AB,/B/ B2 zB/b/ |
[V:2](3:2:2z4 z/=a/b/b z|
[V:3](3:2:2z4 z/^F/G/G z|
[V:4]E,z F,z G,2 z2 |
[V:1]b/a/B/a/ a/g/B/b/ b/a/B/a/ a/g/b |
[V:2]Bz Bz Bz BB/b/ |
[V:3]Fz Gz Fz EG |
[V:4]D,z E,z D,z E,z |
[V:1]c'2 b2 a2 g2 |
[V:2]b/c/c/a/ a/B/B/g/ g/A/A/f/ f/G/G/e/ |
[V:3]AF DE CD EG, |
[V:4]z8 |
[V:1]f2 _gf/e/ df af/d/ |
[V:2]e/F/F/e/ e/E/E/_G/ F4 |
[V:3]A,A, =A,A,2 <B,2 A |
[V:4]z4 B,,4- |
[V:1]eg bg/=e/ fa c'a/f/ |
[V:2]G4 A4 |
[V:3]G4 D4 |
[V:4]B,,8- |
[V:1]gb e'b/g/ =ac' e'c'/a/ |
[V:2]G4 E4 |
[V:3]E4 C4 |
[V:4]B,,8- |
[V:1]bf/d/ b=a/f/ bf/d/ ba/f/ |
[V:2]F2 E2 F2 E2 |
[V:3]D2 C2 D2 C2 |
[V:4]B,,8- |
[V:1]bf/d/ bg/e/ ba/f/ bg/e/ |
[V:2]F2 G2 A2 G2 |
[V:3]D2 E2 F2 E2 |
[V:4]B,,8- |
[V:1]B3 =B/c/ c3 a/f/ |
[V:2]F2 z3 =E/F/ F2- |
[V:3]D2 z6 |
[V:4]B,,3 G,/A,/ A,4 |
[V:1]e2 de f>g aB/e/ |
[V:2]FG/A/ AG2 <c2 A |
[V:3]z=E/F/ F_E2 <A2 D |
[V:4]B,2 >C2 A,3 B, |
[V:1]ee ef/d/ eg ga/f/ |
[V:2]GG GA/F/ Ge ef/d/ |
[V:3]EB, B,B, B,B, B,B, |
[V:4]E,E, E,E, E,E, E,E, |
[V:1]gb bc'/a/ b[_d'eG] [Gd'e][Gd'e] |
[V:2]eg ga/f/ g[bB] [bB][bB] |
[V:3]B,G, EE E_D DD |
[V:4]E,E, E,E, E,[G,,E,] [E,G,,][E,G,,] |
[V:1][G2_d'2e2] z2 =bc'/z/ ga/z/ |
[V:2][b2B2] z2 >E2 zF |
[V:3]_D2 z2 >C2 zC |
[V:4][G,,2E,2] z2 >A,2 zA, |
[V:1]=ef/z/ ga/z/ =ab/z/ ^fg/z/ |
[V:2]zF zF zE zE |
[V:3]zC zC zB, zB, |
[V:4]zA, zA, zG, zG, |
[V:1]de/z/ fg/z <af/ e/d/c/B/ |
[V:2]zE zE D2 z2 |
[V:3]zB, zB, A,2 z2 |
[V:4]zG, zG, F,2 z2 |
[V:1]A/G/F/E/ D/C/B,/A,/ (3G,/E/D/(3F/E/G/ (3F/A/G/(3B/A/c/ |
[V:2]F4 E2 z2 |
[V:3]B,6 z2 |
[V:4]A,,4 G,,2 z2 |
[V:1](3B/e/d/(3e/g/f/ (3e/d/c/(3B/A/G/ (3F/A/c/(3c/c/c/ (3c/f/a/(3a/a/a/ |
[V:2]e2 z2 cz cz |
[V:3]E2 z2 Ez Fz |
[V:4]G,,2 z2 A,,z A,,z |
[V:1](3f/a/c'/(3c'/c'/c'/ (3=a/c'/e'/(3e'/e'/e'/ e'>b (3e'/b/g/(3b/g/e/ |
[V:2]cz ez ee ee |
[V:3]Fz _Gz =GG GG |
[V:4]A,,z =A,,z B,,B,, B,,B,, |
[V:1]B2 f2 e4- |
[V:2]ee dd e2 zE/A/ |
[V:3]FF A,A, G,2 z2 |
[V:4]B,,B,, B,,B,, E,2 z2 |
[V:1]e7 e/B/ |
[V:2]AE/G/ GE/c/ cE/B/ Bz |
[V:3]Cz B,z A,z G,z |
[V:4]z8 |
[V:1]cc/F/ AA/D/ E4- |
[V:2]Fz Dz E2 zE/A,/ |
[V:3]A,z B,z E,4- |
[V:4]z8 |
[V:1]E7 =E/F/ |
[V:2]A,E/G,/ G,E/C/ CE/B,/ B,z |
[V:3]E,6 z2 |
[V:4]C,z B,,A,,/A,/ A,G,,/G,/ G,z |
[V:1]FF/A/ AB,/E/ E2 z2 |]
[V:2]Cz Dz E2 z2 |]
[V:3]A,z F,z E,2 z2 |]
[V:4]A,,z B,,z E,,2 z2 |]

